apps/ui-icons/svgs/stake.svg

<svg width="24" height="24" viewBox="0 0 24 24" fill="none" xmlns="http://www.w3.org/2000/svg">
<g id="tokens">
<path id="icon" fill-rule="evenodd" clip-rule="evenodd" d="M9.70715 4.05025C12.4408 1.31658 16.873 1.31658 19.6066 4.05025C22.3403 6.78392 22.3403 11.2161 19.6066 13.9497L13.4919 20.0259C12.6011 20.7711 11.5389 21.2831 10.4009 21.5155C9.263 21.748 8.0851 21.6936 6.9734 21.3574C5.8617 21.0211 4.85114 20.4135 4.03278 19.5894C3.21443 18.7652 2.614 17.7504 2.28562 16.6363C1.95724 15.5223 1.91121 14.344 2.1517 13.2077C2.39218 12.0715 2.91162 11.0129 3.66319 10.1274L9.70715 4.05025ZM11.1214 5.46447C10.6225 5.9633 10.2511 6.54131 10.0072 7.15805L10.0119 7.17016L10.0007 7.17455C9.29846 8.96845 9.67203 11.0862 11.1214 12.5355C13.074 14.4882 16.2398 14.4882 18.1924 12.5355C20.1451 10.5829 20.1451 7.41709 18.1924 5.46447C16.2398 3.51184 13.074 3.51184 11.1214 5.46447ZM7.17369 10.0026C7.17696 10.0013 7.18025 10.0001 7.18353 9.99877L7.17939 9.98815C7.30649 9.66708 7.46661 9.35981 7.65726 9.07138C7.67518 10.839 8.35847 12.6011 9.70715 13.9497C11.0558 15.2984 12.8179 15.9817 14.5855 15.9996C14.0534 16.3514 13.4574 16.599 12.829 16.7274C12.0162 16.8934 11.1749 16.8546 10.3808 16.6144C9.58673 16.3742 8.86489 15.9402 8.28036 15.3515C7.69582 14.7629 7.26694 14.038 7.03238 13.2422C6.79782 12.4465 6.76495 11.6049 6.93673 10.7932C6.99399 10.5227 7.07339 10.2583 7.17369 10.0026ZM4.82874 11.9002C4.48367 12.4223 4.23867 13.0061 4.10836 13.6219C3.93658 14.4335 3.96946 15.2751 4.20402 16.0708C4.43858 16.8666 4.86745 17.5915 5.45199 18.1802C6.03652 18.7688 6.75836 19.2028 7.55243 19.443C8.3465 19.6832 9.18785 19.722 10.0007 19.556C10.6291 19.4276 11.2251 19.1799 11.7573 18.8282C11.097 18.8215 10.4385 18.7213 9.80177 18.5287C8.69007 18.1925 7.6795 17.5849 6.86115 16.7607C6.0428 15.9366 5.44237 14.9218 5.11399 13.8077C4.93065 13.1857 4.83533 12.5437 4.82874 11.9002Z" fill="#171D26"/>
</g>
</svg>

<svg xmlns="http://www.w3.org/2000/svg" width="24" height="24" fill="none" viewBox="0 0 24 24">
  <path fill="#171D26" fill-rule="evenodd" d="M9.707 4.05a7 7 0 1 1 9.9 9.9l-6.115 6.076a7 7 0 0 1-9.829-9.899L9.707 4.05Zm1.414 1.414a4.981 4.981 0 0 0-1.114 1.694l.005.012-.011.005a5.001 5.001 0 1 0 1.12-1.71Zm-3.947 4.539.01-.004-.005-.01a5 5 0 0 1 .478-.918 6.977 6.977 0 0 0 2.05 4.879A6.977 6.977 0 0 0 14.585 16a5 5 0 0 1-7.411-5.997ZM4.829 11.9a5 5 0 0 0 6.928 6.928A7 7 0 0 1 4.83 11.9Z" clip-rule="evenodd"/>
</svg>
